src/images/mediaLogos/darkTheme/Architizer.svg

<svg width="85" height="17" viewBox="0 0 85 17" fill="none" xmlns="http://www.w3.org/2000/svg">
<path d="M11.7217 15.8052L7.26936 2.55169L3.38073 13.8609H8.86852V15.6902H0.642578L6.24543 0.158691H8.52338L14.0112 15.6902H11.7217V15.8052Z" fill="#ECECEC"/>
<path d="M20.9709 6.55548C20.7408 6.55548 20.5107 6.44043 20.2806 6.44043C19.8283 6.46346 19.3853 6.57738 18.9781 6.77538C18.5708 6.97339 18.2076 7.25142 17.9102 7.59289C17.6127 7.93436 17.3871 8.33225 17.2469 8.76283C17.1066 9.1934 17.0545 9.64782 17.0937 10.099V15.8514H15.1494V4.95631H17.0937V7.01568C17.3349 6.33311 17.7847 5.74366 18.3793 5.33074C18.9739 4.91781 19.6833 4.7023 20.4071 4.71471C20.6064 4.6837 20.8103 4.72447 20.9824 4.82976L20.9709 6.55548Z" fill="#ECECEC"/>
<path d="M26.1143 16.0354C22.916 16.0354 20.9717 13.861 20.9717 10.283C20.9717 6.70497 23.1461 4.53056 26.1143 4.53056C27.0965 4.4762 28.0707 4.73409 28.8974 5.26728C29.724 5.80047 30.3607 6.58161 30.7163 7.4988L29.1171 8.30414C28.9372 7.66174 28.5468 7.0983 28.0087 6.70406C27.4705 6.30982 26.8156 6.10758 26.1488 6.12973C24.2045 6.12973 22.9505 7.61385 22.9505 10.2369C22.9505 12.86 24.3196 14.3442 26.1488 14.3442C26.8144 14.3724 27.4734 14.2028 28.0427 13.8567C28.6119 13.5107 29.0659 13.0037 29.3472 12.3999L30.8313 13.2052C30.4236 14.0987 29.7545 14.8475 28.9123 15.3528C28.0702 15.8581 27.0946 16.0961 26.1143 16.0354V16.0354Z" fill="#ECECEC"/>
<path d="M41.0819 15.8064H39.1376V9.52478C39.1376 7.12027 38.2287 6.44149 36.6295 6.44149C36.2267 6.44747 35.8295 6.53702 35.4631 6.70446C35.0966 6.8719 34.7689 7.11359 34.5007 7.41423C34.2325 7.71487 34.0297 8.06791 33.905 8.45101C33.7803 8.83411 33.7365 9.23892 33.7763 9.63982V15.9215H31.832V0.274902H33.7763V6.55653C34.1382 5.95206 34.6616 5.46058 35.2877 5.13741C35.9137 4.81423 36.6175 4.67219 37.3198 4.72727C37.908 4.67256 38.5003 4.76972 39.0401 5.00942C39.58 5.24913 40.0493 5.62338 40.4031 6.09634C40.9251 6.99436 41.1656 8.02838 41.0934 9.06458V15.8064H41.0819Z" fill="#ECECEC"/>
<path d="M44.624 4.95654H42.6797V15.8056H44.624V4.95654Z" fill="#ECECEC"/>
<path d="M43.7052 2.55248C43.3735 2.54948 43.0563 2.4164 42.8218 2.18187C42.5873 1.94734 42.4542 1.63012 42.4512 1.29846C42.4512 0.965871 42.5833 0.646904 42.8185 0.411729C43.0536 0.176554 43.3726 0.0444336 43.7052 0.0444336C44.0378 0.0444336 44.3567 0.176554 44.5919 0.411729C44.8271 0.646904 44.9592 0.965871 44.9592 1.29846C44.9752 1.46712 44.9538 1.63724 44.8964 1.79666C44.8391 1.95608 44.7472 2.10086 44.6274 2.22066C44.5076 2.34046 44.3628 2.43232 44.2034 2.48969C44.044 2.54705 43.8739 2.56849 43.7052 2.55248V2.55248Z" fill="#ECECEC"/>
<path d="M52.6203 6.44167H50.2158V15.6915H48.2715V6.44167H46.2236V4.8425H48.2715V1.41406H50.2158V4.8425H52.6203V6.44167Z" fill="#ECECEC"/>
<path d="M56.0488 4.95654H54.1045V15.8056H56.0488V4.95654Z" fill="#ECECEC"/>
<path d="M55.129 2.55248C55.8216 2.55248 56.3831 1.99104 56.3831 1.29846C56.3831 0.60588 55.8216 0.0444336 55.129 0.0444336C54.4364 0.0444336 53.875 0.60588 53.875 1.29846C53.875 1.99104 54.4364 2.55248 55.129 2.55248Z" fill="#ECECEC"/>
<path d="M66.0918 15.8056H57.5322V14.3215L63.6988 6.55571H57.8659V4.95654H66.0918V6.44066L59.8102 14.3215H66.0918V15.8056Z" fill="#ECECEC"/>
<path d="M76.7251 10.5483C76.7251 7.34997 75.126 4.7959 71.8126 4.7959C68.8443 4.7959 66.6699 7.09686 66.6699 10.3987C66.6699 13.9422 68.7293 16.1512 71.8126 16.1512C72.7547 16.1753 73.6873 15.9574 74.5211 15.5183C75.355 15.0792 76.0624 14.4335 76.5756 13.6431L75.2065 12.6192C74.8875 13.1838 74.422 13.6519 73.859 13.9738C73.296 14.2958 72.6566 14.4598 72.0082 14.4484C71.5325 14.4652 71.0587 14.3804 70.6184 14.1996C70.1781 14.0188 69.7814 13.7462 69.4547 13.4C69.1281 13.0538 68.8791 12.6419 68.7242 12.1918C68.5694 11.7417 68.5123 11.2638 68.5567 10.7899H76.6101L76.7251 10.5483ZM68.7293 9.24826C68.7623 8.41717 69.1212 7.6325 69.7284 7.06407C70.3356 6.49563 71.1422 6.18917 71.9736 6.21099C73.5728 6.21099 74.5967 7.36147 74.8268 9.29428L68.7293 9.24826Z" fill="#ECECEC"/>
<path d="M84.0304 6.55548C83.8003 6.55548 83.5702 6.44043 83.3401 6.44043C82.8869 6.46197 82.4426 6.57479 82.034 6.77213C81.6254 6.96948 81.2609 7.24729 80.9622 7.58892C80.6636 7.93054 80.437 8.32895 80.296 8.76026C80.155 9.19157 80.1026 9.6469 80.1418 10.099V15.8514H78.209V4.95631H80.1533V7.01568C80.3945 6.33311 80.8442 5.74366 81.4388 5.33074C82.0335 4.91781 82.7429 4.7023 83.4667 4.71471C83.666 4.6837 83.8699 4.72447 84.0419 4.82976L84.0304 6.55548Z" fill="#ECECEC"/>
</svg>

<svg fill="none" height="17" width="85" xmlns="http://www.w3.org/2000/svg"><path d="m11.722 15.805-4.453-13.253-3.888 11.308h5.488v1.83h-8.226l5.602-15.532h2.278l5.488 15.531h-2.29v.115zm9.249-9.25c-.23 0-.46-.115-.69-.115a3.37 3.37 0 0 0 -3.187 3.659v5.752h-1.945v-10.895h1.945v2.06a3.452 3.452 0 0 1 3.313-2.301c.2-.031.403.01.575.115zm5.143 9.48c-3.198 0-5.142-2.174-5.142-5.752s2.174-5.752 5.142-5.752a4.66 4.66 0 0 1 4.602 2.968l-1.599.805a2.98 2.98 0 0 0 -2.967-2.174c-1.945 0-3.198 1.484-3.198 4.107s1.369 4.107 3.198 4.107a3.371 3.371 0 0 0 3.198-1.944l1.484.805a4.855 4.855 0 0 1 -4.717 2.83zm14.968-.229h-1.944v-6.281c0-2.405-.91-3.084-2.508-3.084a2.91 2.91 0 0 0 -2.854 3.199v6.281h-1.944v-15.646h1.944v6.282a3.785 3.785 0 0 1 3.544-1.83 3.451 3.451 0 0 1 3.083 1.37c.522.897.763 1.931.69 2.968v6.741zm3.542-10.85h-1.944v10.85h1.944zm-.919-2.404a1.265 1.265 0 0 1 -1.254-1.254 1.254 1.254 0 1 1 2.508 0 1.15 1.15 0 0 1 -1.254 1.254zm8.915 3.89h-2.404v9.25h-1.944v-9.25h-2.048v-1.6h2.048v-3.427h1.944v3.429h2.404v1.599zm3.429-1.485h-1.944v10.849h1.944v-10.85zm-.92-2.405a1.254 1.254 0 1 0 0-2.508 1.254 1.254 0 0 0 0 2.508zm10.963 13.254h-8.56v-1.484l6.168-7.766h-5.833v-1.6h8.226v1.485l-6.282 7.88h6.282v1.485zm10.633-5.258c0-3.198-1.599-5.752-4.912-5.752-2.969 0-5.143 2.3-5.143 5.603 0 3.543 2.06 5.752 5.143 5.752a5.51 5.51 0 0 0 4.763-2.508l-1.37-1.024a3.6 3.6 0 0 1 -3.198 1.83 3.348 3.348 0 0 1 -3.451-3.66h8.053l.115-.24zm-7.996-1.3a3.164 3.164 0 0 1 3.245-3.037c1.599 0 2.623 1.15 2.853 3.083zm15.301-2.693c-.23 0-.46-.115-.69-.115a3.371 3.371 0 0 0 -3.198 3.659v5.752h-1.933v-10.895h1.944v2.06a3.451 3.451 0 0 1 3.314-2.301c.199-.031.403.01.575.115z" fill="#ececec"/></svg>
